img/facebook.svg

<svg width="44" height="44" viewBox="0 0 44 44" fill="none" xmlns="http://www.w3.org/2000/svg">
<path fill-rule="evenodd" clip-rule="evenodd" d="M21.8938 1.4839C33.1232 1.4839 42.2265 10.5873 42.2265 21.8169C42.2265 33.0461 33.1232 42.1494 21.8938 42.1494C10.6643 42.1494 1.56108 33.0461 1.56108 21.8169C1.56108 10.5873 10.6643 1.4839 21.8938 1.4839Z" fill="#212A3A"/>
<path d="M28 15V11H24C21.7909 11 20 12.7909 20 15V19H16V23H20V33H24V23H28V19H24V15H28Z" fill="white"/>
</svg>

<svg xmlns="http://www.w3.org/2000/svg" width="44" height="44" fill="none"><defs/><path fill="#212A3A" fill-rule="evenodd" d="M21.9 1.5a20.3 20.3 0 110 40.6 20.3 20.3 0 010-40.6z" clip-rule="evenodd"/><path fill="#fff" d="M28 15v-4h-4a4 4 0 00-4 4v4h-4v4h4v10h4V23h4v-4h-4v-4h4z"/></svg>
